projects/flag-game/flags/Madagascar.svg

<svg viewBox="0 0 1000 667" xmlns="http://www.w3.org/2000/svg" xmlns:xlink="http://www.w3.org/1999/xlink"><clipPath id="a"><path d="m0 0h1000v666.71875h-1000zm0 0"/></clipPath><clipPath id="b"><path d="m333 0h667v666.71875h-667zm0 0"/></clipPath><clipPath id="c"><path d="m333 333h667v333.71875h-667zm0 0"/></clipPath><g clip-path="url(#a)"><path d="m0 0h1000v666.667969h-1000zm0 0" fill="#fff" fill-rule="evenodd"/></g><g clip-path="url(#b)"><path d="m333.332031 0h666.667969v666.667969h-666.667969zm0 0" fill="#fc3d32" fill-rule="evenodd"/></g><g clip-path="url(#c)"><path d="m333.332031 333.332031h666.667969v333.335938h-666.667969zm0 0" fill="#007e3a" fill-rule="evenodd"/></g></svg>

<?xml version="1.0" encoding="UTF-8"?>
<svg xmlns="http://www.w3.org/2000/svg" xmlns:xlink="http://www.w3.org/1999/xlink" viewBox="0 0 1000 667" version="1.1">
<defs>
<clipPath id="clip1">
  <path d="M 0 0 L 1000 0 L 1000 666.71875 L 0 666.71875 Z M 0 0 "/>
</clipPath>
<clipPath id="clip2">
  <path d="M 333 0 L 1000 0 L 1000 666.71875 L 333 666.71875 Z M 333 0 "/>
</clipPath>
<clipPath id="clip3">
  <path d="M 333 333 L 1000 333 L 1000 666.71875 L 333 666.71875 Z M 333 333 "/>
</clipPath>
</defs>
<g id="surface725">
<g clip-path="url(#clip1)" clip-rule="nonzero">
<path style=" stroke:none;fill-rule:evenodd;fill:rgb(99.998474%,99.998474%,99.998474%);fill-opacity:1;" d="M 0 0 L 1000 0 L 1000 666.667969 L 0 666.667969 Z M 0 0 "/>
</g>
<g clip-path="url(#clip2)" clip-rule="nonzero">
<path style=" stroke:none;fill-rule:evenodd;fill:rgb(98.822021%,23.921204%,19.607544%);fill-opacity:1;" d="M 333.332031 0 L 1000 0 L 1000 666.667969 L 333.332031 666.667969 Z M 333.332031 0 "/>
</g>
<g clip-path="url(#clip3)" clip-rule="nonzero">
<path style=" stroke:none;fill-rule:evenodd;fill:rgb(0%,49.411011%,22.744751%);fill-opacity:1;" d="M 333.332031 333.332031 L 1000 333.332031 L 1000 666.667969 L 333.332031 666.667969 Z M 333.332031 333.332031 "/>
</g>
</g>
</svg>
